X:1
T:Example
C:Roland Metivier
M:5/4
L:1/4
Q:170
K:Bb dorian
| [C e g a] g a e c | [C e g a] g a e c |
| [D f a c] d a f c | [E f a d] d a f e |
| [C e g a] g a e c | [C e g a] g a e c |
| [D f a c] d a f c | [E f a d] d a f e |
